X:7153
T:the Old Haile Hornpipe
O:england
M:3/2
L:1/8
K:G
A3 B c2 BA B2 AG | A2 D4 G2 F2 ED |\
B3 c d2 cB c2 BA | B2 G4 A2 B2 AG ||
FGAB cdcA GABG | A2 D4 G2 F2 D2 |\
GABc dedB ABcA | B2 G4 A2 B2 AG ||
c2 e4   dc BcdB | A2 D4 G2 F2 ED |\
G2 g2 f3 e fgaf | g2 G4 A2 B2 AG ||
cBAG FGAF GABG | A2 D4 G2 F3 A |\
dcBA GABG cAFA | B2 G4 A2 B2 AG ||
c2 e2 c2 e2 BcdB | A2 f2 A2 f2 ABcA |\
G2 g2 G2 g2 fgaf | g2 G4 A2 B2 AG ||
cBAG FGAF GABG | AGFE DEFG ABcA |\
dcBA GABG cAFA | B2 G4 A2 B2 AG||
c2 e2 c2 e2 B2 d2 | A2 f2 A2 f2 ABcA |\
G2 g2 G2 g2 fgaf  | g2 G4 A2 B2 AB ||
cAFA cAFA dBGB | A2 D4 G2 F3 A |\
dBGB dBGB cAFA | B2 G4 A2 B3 AG ||
c2 e2 c2 e2 B2 d2 | A2 f2 A2 f2 ABcA |\
G2 g2 G2 g2 fgaf  | g2 G4 A2 B2 AG |]


